X:1
T:No Cross for Me?
T:John Robson Sweney
T:No Cross for Me?
T:Public Domain
T:Public Domain
C:John Robson Sweney
Z:Public Domain
%%score ( 1 2 ) ( 3 4 )
L:1/8
M:4/4
K:F
V:1 treble 
V:2 treble 
V:3 bass 
V:4 bass 
V:1
 [FA]2 [FA]>[FA] [FA]3 C | [B,D]C[CF][FA] [FA]2 [EG]2 | [EB]2 [EB]>[EB] [EB]3 C | %3
w: 1.~No cross for me, O|èd Lord and Sav- ior? No|for me, when Thou Thine|
w: 2.~No cross for me, when|the King of glo- ry, The|Be- loved, the Fa- ther’s|
w: 3.~No cross for me? shall|on Pis- gah’s mount- ain Con-|a- bide, from care and|
w: 4.~“Take up the cross if|art My di- sci- ple!” Deep|my soul I hear Thy|
 C[CF][CF][CG] [FA]4 | [Fc]2 [Fc]>[Fc] [Fc]3 [FB] | [FA][FA][EG][DF] | %6
w: didst bear, At mid- night|with- in the gar- den|kneel- ing, While pi-|
w: ly Son, Didst with Thy|a- tone for all trans-|gress- ions? For Thou|
w: al free? Ah, no, but|the wil- der- ness of|sor- row, Tho’ pierced|
w: of love: “Take up the|and when the war is|o- ver, Home, rest,|
 [DF]2 [FB]2 [Fd]2 [Fd][Fd] [Fc]3 [EB] | [FA][DG][CF][CE] [CF]4 || %8
w: tying stars be- held Thy an- guish|there? * * * *|
w: hast tast- ed death for ev- ’ry|one. There is a cross,|
w: with thorns, my feet shall fol- low|Thee! * * * *|
w: and crown, with end- less joy a-|bove!” * * * *|
"^Refrain" [EG]2 [EG]>[FA] [GB]3 [GB] | [FA][EG]F[EG] [FA]2 [Fc]2 | [Fd]2 [Fd][Fd] [Fc]2 [FA]2 | %11
w: |||
w: and glad- ly I ac-|cept it; There is a war-|with a host of sin;|
w: |||
w: |||
 [FA][FA][FG]F (G2 c2) |] %12
w: |
w: |
w: |
w: |
V:2
 x7 C | x C x6 | x7 C | C x7 | x8 | x4 | x12 | x8 || x8 | x2 F x5 | x8 | x3 F E4 |] %12
w: bless-|cross|own|hour|||||||||
w: Thou|Well-|on-|blood||||||fare|||
w: I|tent|tri-|thro’|||||||||
w: thou|in|words|cross,|||||||||
V:3
 [F,C]2 [F,C]>[F,C] [F,C]3 [F,A,] | [F,B,][F,A,][F,A,][F,C] [C,C]2 [C,C]2 | %2
w: ~ ~ ~ ~ ~|~ ~ ~ ~ ~ ~|
 [C,G,]2 [C,G,]>[C,G,] [C,G,]3 [E,B,] | [G,B,][F,A,][F,A,][F,B,] [F,C]4 | %4
w: ~ ~ ~ ~ ~|~ ~ ~ ~ ~|
 [F,A,]2 [F,A,]>[F,A,] [F,A,]3 [F,D] | [F,C][F,C][C,B,][D,A,] | %6
w: D.S.~But Thou has op’d the|gate of life e-|
 [B,,B,]2 [B,,D]2 B,2 B,B, [A,C]3 [G,C] | [F,C][B,,B,][C,A,][C,G,] [F,A,]4 || %8
w: ter- nal, And Thou wilt let Thine|ren in. * * *|
 [C,C]2 [C,C]>[C,C] [C,C]3 [C,C] | [F,C][C,C][A,,C][C,C] [F,C]2 [F,A,]2 | B,2 B,B, [A,C]2 [F,C]2 | %11
w: |||
 [D,D][D,D][G,=B,][G,B,] (C2 _B,2) |] %12
w: |
V:4
 x8 | x8 | x8 | x8 | x8 | x4 | x4 B,2 B,B, x4 | x8 || x8 | x8 | B,2 B,B, x4 | x4 C,4 |] %12
w: ||||||own dear child-||||||

